images/indikatorenset/5864.svg

<?xml version="1.0" standalone="no"?><!DOCTYPE svg PUBLIC "-//W3C//DTD SVG 1.1//EN" "http://www.w3.org/Graphics/SVG/1.1/DTD/svg11.dtd"><svg xmlns:xlink="http://www.w3.org/1999/xlink" version="1.1" class="highcharts-root" style="font-family:arial;font-size:12px;" xmlns="http://www.w3.org/2000/svg" width="320" height="208"><desc>Created with Highstock 5.0.14</desc><defs><clipPath id="highcharts-9gt1eqz-6"><rect x="0" y="0" width="268" height="119" fill="none"></rect></clipPath><clipPath id="highcharts-9gt1eqz-7"><rect x="0" y="0" width="268" height="119" fill="none"></rect></clipPath></defs><rect fill="#fbfbfb" class="highcharts-background" x="0" y="0" width="320" height="208" rx="0" ry="0"></rect><rect fill="none" class="highcharts-plot-background" x="49" y="60" width="268" height="119"></rect><g class="highcharts-pane-group"></g><g class="highcharts-grid highcharts-xaxis-grid "><path fill="none" class="highcharts-grid-line" d="M 93.5 60 L 93.5 179" opacity="1"></path><path fill="none" class="highcharts-grid-line" d="M 137.5 60 L 137.5 179" opacity="1"></path><path fill="none" class="highcharts-grid-line" d="M 182.5 60 L 182.5 179" opacity="1"></path><path fill="none" class="highcharts-grid-line" d="M 227.5 60 L 227.5 179" opacity="1"></path><path fill="none" class="highcharts-grid-line" d="M 271.5 60 L 271.5 179" opacity="1"></path><path fill="none" class="highcharts-grid-line" d="M 316.5 60 L 316.5 179" opacity="1"></path><path fill="none" class="highcharts-grid-line" d="M 48.5 60 L 48.5 179" opacity="1"></path></g><g class="highcharts-grid highcharts-yaxis-grid "><path fill="none" stroke="#B9CFD7" stroke-width="0.5" class="highcharts-grid-line" d="M 49 179.25 L 317 179.25" opacity="1"></path><path fill="none" stroke="#B9CFD7" stroke-width="0.5" class="highcharts-grid-line" d="M 49 139.25 L 317 139.25" opacity="1"></path><path fill="none" stroke="#B9CFD7" stroke-width="0.5" class="highcharts-grid-line" d="M 49 100.25 L 317 100.25" opacity="1"></path><path fill="none" stroke="#B9CFD7" stroke-width="0.5" class="highcharts-grid-line" d="M 49 60.25 L 317 60.25" opacity="1"></path></g><rect fill="none" class="highcharts-plot-border" x="49" y="60" width="268" height="119"></rect><g class="highcharts-axis highcharts-xaxis "><path fill="none" class="highcharts-tick" stroke="#FFFFFF" stroke-width="1" d="M 93.5 179 L 93.5 189" opacity="1"></path><path fill="none" class="highcharts-tick" stroke="#FFFFFF" stroke-width="1" d="M 137.5 179 L 137.5 189" opacity="1"></path><path fill="none" class="highcharts-tick" stroke="#FFFFFF" stroke-width="1" d="M 182.5 179 L 182.5 189" opacity="1"></path><path fill="none" class="highcharts-tick" stroke="#FFFFFF" stroke-width="1" d="M 227.5 179 L 227.5 189" opacity="1"></path><path fill="none" class="highcharts-tick" stroke="#FFFFFF" stroke-width="1" d="M 271.5 179 L 271.5 189" opacity="1"></path><path fill="none" class="highcharts-tick" stroke="#FFFFFF" stroke-width="1" d="M 317.5 179 L 317.5 189" opacity="1"></path><path fill="none" class="highcharts-tick" stroke="#FFFFFF" stroke-width="1" d="M 48.5 179 L 48.5 189" opacity="1"></path><path fill="none" class="highcharts-axis-line" stroke="#B9CFD7" stroke-width="0.5" d="M 49 179.25 L 317 179.25"></path></g><g class="highcharts-axis highcharts-yaxis "><path fill="none" class="highcharts-axis-line" d="M 49 60 L 49 179"></path></g><g class="highcharts-series-group"><g class="highcharts-series highcharts-series-0 highcharts-column-series highcharts-color-undefined " transform="translate(49,60) scale(1 1)" clip-path="url(#highcharts-9gt1eqz-7)"><rect x="15" y="30" width="15" height="1" fill="#2f656b" class="highcharts-point"></rect><rect x="60" y="30" width="15" height="2" fill="#2f656b" class="highcharts-point"></rect><rect x="104" y="27" width="15" height="2" fill="#2f656b" class="highcharts-point"></rect><rect x="149" y="25" width="15" height="2" fill="#2f656b" class="highcharts-point"></rect><rect x="194" y="20" width="15" height="2" fill="#2f656b" class="highcharts-point"></rect><rect x="238" y="23" width="15" height="2" fill="#2f656b" class="highcharts-point"></rect></g><g class="highcharts-markers highcharts-series-0 highcharts-column-series highcharts-color-undefined " transform="translate(49,60) scale(1 1)" clip-path="none"></g><g class="highcharts-series highcharts-series-1 highcharts-column-series highcharts-color-undefined " transform="translate(49,60) scale(1 1)" clip-path="url(#highcharts-9gt1eqz-7)"><rect x="15" y="31" width="15" height="89" fill="#b00000" class="highcharts-point"></rect><rect x="60" y="32" width="15" height="88" fill="#b00000" class="highcharts-point"></rect><rect x="104" y="29" width="15" height="91" fill="#b00000" class="highcharts-point"></rect><rect x="149" y="27" width="15" height="93" fill="#b00000" class="highcharts-point"></rect><rect x="194" y="22" width="15" height="98" fill="#b00000" class="highcharts-point"></rect><rect x="238" y="25" width="15" height="95" fill="#b00000" class="highcharts-point"></rect></g><g class="highcharts-markers highcharts-series-1 highcharts-column-series highcharts-color-undefined " transform="translate(49,60) scale(1 1)" clip-path="none"></g></g><text x="3" text-anchor="start" class="highcharts-title" style="color:#000000;font-size:10px;font-weight:bold;fill:#000000;" y="14"><tspan>Anzahl Wegpendler nach Ziel</tspan></text><g class="highcharts-legend" transform="translate(38,7)"><rect fill="none" class="highcharts-legend-box" rx="0" ry="0" x="0" y="0" width="196" height="41" visibility="visible"></rect><g><g><g class="highcharts-legend-item highcharts-column-series highcharts-color-undefined highcharts-series-0" transform="translate(8,3)"><text x="21" style="color:#333333;font-size:10px;font-weight:normal;cursor:pointer;fill:#333333;" text-anchor="start" y="13"><tspan>Ins Ausland</tspan></text><rect x="3" y="4" width="10" height="10" fill="#2f656b" class="highcharts-point"></rect></g><g class="highcharts-legend-item highcharts-column-series highcharts-color-undefined highcharts-series-1" transform="translate(8,18)"><text x="21" y="13" style="color:#333333;font-size:10px;font-weight:normal;cursor:pointer;fill:#333333;" text-anchor="start"><tspan>In die Schweiz</tspan></text><rect x="3" y="4" width="10" height="10" fill="#b00000" class="highcharts-point"></rect></g></g></g></g><g class="highcharts-axis-labels highcharts-xaxis-labels "><text x="71.33333333333333" style="color:#000000;cursor:default;font-size:10;fill:#000000;" text-anchor="middle" transform="translate(0,0)" y="199" opacity="1">2010</text><text x="115.99999999999999" style="color:#000000;cursor:default;font-size:10;fill:#000000;" text-anchor="middle" transform="translate(0,0)" y="199" opacity="1">2011</text><text x="160.66666666666666" style="color:#000000;cursor:default;font-size:10;fill:#000000;" text-anchor="middle" transform="translate(0,0)" y="199" opacity="1">2012</text><text x="205.33333333333331" style="color:#000000;cursor:default;font-size:10;fill:#000000;" text-anchor="middle" transform="translate(0,0)" y="199" opacity="1">2013</text><text x="250.00000000000003" style="color:#000000;cursor:default;font-size:10;fill:#000000;" text-anchor="middle" transform="translate(0,0)" y="199" opacity="1">2014</text><text x="294.6666666666667" style="color:#000000;cursor:default;font-size:10;fill:#000000;" text-anchor="middle" transform="translate(0,0)" y="199" opacity="1">2015</text></g><g class="highcharts-axis-labels highcharts-yaxis-labels "><text x="34" style="color:#000000;cursor:default;font-size:10;fill:#000000;" text-anchor="end" transform="translate(0,0)" y="185" opacity="1"><tspan>0</tspan></text><text x="34" style="color:#000000;cursor:default;font-size:10;fill:#000000;" text-anchor="end" transform="translate(0,0)" y="145" opacity="1"><tspan>10 000</tspan></text><text x="34" style="color:#000000;cursor:default;font-size:10;fill:#000000;" text-anchor="end" transform="translate(0,0)" y="105" opacity="1"><tspan>20 000</tspan></text><text x="34" style="color:#000000;cursor:default;font-size:10;fill:#000000;" text-anchor="end" transform="translate(0,0)" y="65" opacity="1"><tspan>30 000</tspan></text></g><text x="10" class="highcharts-credits" text-anchor="start" style="cursor:default;color:#000000;font-size:10;fill:#000000;" y="193"><tspan>Quelle: Bundesamt für Statistik BFS, Strukturerhebung (SE)</tspan></text></svg>

<svg class="highcharts-root" xmlns="http://www.w3.org/2000/svg" width="320" height="208" font-family="arial" font-size="12">
    <defs>
        <clipPath id="a">
            <path fill="none" d="M0 0h268v119H0z"/>
        </clipPath>
    </defs>
    <rect fill="#fbfbfb" class="highcharts-background" width="320" height="208" rx="0" ry="0"/>
    <path fill="none" class="highcharts-plot-background" d="M49 60h268v119H49z"/>
    <g class="highcharts-grid highcharts-xaxis-grid">
        <path fill="none" class="highcharts-grid-line" d="M93.5 60v119m44-119v119m45-119v119m45-119v119m44-119v119m45-119v119M48.5 60v119"/>
    </g>
    <g class="highcharts-grid highcharts-yaxis-grid">
        <path fill="none" stroke="#B9CFD7" stroke-width=".5" class="highcharts-grid-line" d="M49 179.25h268m-268-40h268m-268-39h268m-268-40h268"/>
    </g>
    <path fill="none" class="highcharts-plot-border" d="M49 60h268v119H49z"/>
    <g class="highcharts-axis highcharts-xaxis">
        <path fill="none" class="highcharts-tick" stroke="#FFF" d="M93.5 179v10m44-10v10m45-10v10m45-10v10m44-10v10m46-10v10m-269-10v10"/>
        <path fill="none" class="highcharts-axis-line" stroke="#B9CFD7" stroke-width=".5" d="M49 179.25h268"/>
    </g>
    <g class="highcharts-axis highcharts-yaxis">
        <path fill="none" class="highcharts-axis-line" d="M49 60v119"/>
    </g>
    <g class="highcharts-series-group">
        <g class="highcharts-series highcharts-series-0 highcharts-column-series highcharts-color-undefined" transform="translate(49 60)" clip-path="url(#a)">
            <path fill="#2f656b" class="highcharts-point" d="M15 30h15v1H15zm45 0h15v2H60zm44-3h15v2h-15zm45-2h15v2h-15zm45-5h15v2h-15zm44 3h15v2h-15z"/>
        </g>
        <g class="highcharts-series highcharts-series-1 highcharts-column-series highcharts-color-undefined" transform="translate(49 60)" clip-path="url(#a)">
            <path fill="#b00000" class="highcharts-point" d="M15 31h15v89H15zm45 1h15v88H60zm44-3h15v91h-15zm45-2h15v93h-15zm45-5h15v98h-15zm44 3h15v95h-15z"/>
        </g>
    </g>
    <text x="3" class="highcharts-title" y="14" color="#000" font-size="10" font-weight="700">
        <tspan>Anzahl Wegpendler nach Ziel</tspan>
    </text>
    <g class="highcharts-legend" transform="translate(38 7)">
        <rect fill="none" class="highcharts-legend-box" rx="0" ry="0" width="196" height="41"/>
        <g class="highcharts-legend-item highcharts-column-series highcharts-color-undefined highcharts-series-0">
            <text x="21" y="13" color="#333" font-size="10" font-weight="400" cursor="pointer" fill="#333" transform="translate(8 3)">
                <tspan>Ins Ausland</tspan>
            </text>
            <path fill="#2f656b" class="highcharts-point" d="M11 7h10v10H11z"/>
        </g>
        <g class="highcharts-legend-item highcharts-column-series highcharts-color-undefined highcharts-series-1">
            <text x="21" y="13" color="#333" font-size="10" font-weight="400" cursor="pointer" fill="#333" transform="translate(8 18)">
                <tspan>In die Schweiz</tspan>
            </text>
            <path fill="#b00000" class="highcharts-point" d="M11 22h10v10H11z"/>
        </g>
    </g>
    <g class="highcharts-axis-labels highcharts-xaxis-labels" text-anchor="middle" color="#000" cursor="default" font-size="10">
        <text x="71.333" y="199">
            2010
        </text>
        <text x="116" y="199">
            2011
        </text>
        <text x="160.667" y="199">
            2012
        </text>
        <text x="205.333" y="199">
            2013
        </text>
        <text x="250" y="199">
            2014
        </text>
        <text x="294.667" y="199">
            2015
        </text>
    </g>
    <g class="highcharts-axis-labels highcharts-yaxis-labels" text-anchor="end" color="#000" cursor="default" font-size="10">
        <text x="34" y="185">
            <tspan>0</tspan>
        </text>
        <text x="34" y="145">
            <tspan>10 000</tspan>
        </text>
        <text x="34" y="105">
            <tspan>20 000</tspan>
        </text>
        <text x="34" y="65">
            <tspan>30 000</tspan>
        </text>
    </g>
    <text x="10" class="highcharts-credits" y="193" cursor="default" color="#000" font-size="10">
        <tspan>Quelle: Bundesamt für Statistik BFS, Strukturerhebung (SE)</tspan>
    </text>
</svg>
